svg/home-w-label-bee.svg

<svg width="28" height="28" viewBox="0 0 28 28" fill="none" xmlns="http://www.w3.org/2000/svg">
<path d="M22.6253 11.6784C17.3448 14.8269 4.14231 24.225 10.0503 25.6229C16.8913 27.2415 18.7887 18.9954 23.0428 15.2896C23.6254 14.782 26.2778 14.8544 26.2778 14.1229C26.2778 12.8424 23.1184 11.9618 22.1557 11.734C21.028 11.4672 18.9729 12.6864 18.9729 14.0673C18.9729 15.8316 20.7469 10.8872 20.7469 9.12289C20.7469 4.72902 14.353 -1.85733 13.0245 4.90066C12.4776 7.68277 11.8117 11.2075 14.3811 13.234C15.1823 13.8659 20.4288 16.5164 17.3031 14.4562C16.3145 13.8046 -0.737376 3.41758 2.38011 10.6784C4.68042 16.0361 9.89757 18.6784 15.1116 18.6784" stroke="#4D4D4D" stroke-width="3" stroke-linecap="round"/>
</svg>

<svg xmlns="http://www.w3.org/2000/svg" width="28" height="28" fill="none"><path stroke="#4D4D4D" stroke-linecap="round" stroke-width="3" d="M22.625 11.678c-5.28 3.149-18.483 12.547-12.575 13.945 6.841 1.618 8.739-6.628 12.993-10.333.582-.508 3.235-.436 3.235-1.167 0-1.28-3.16-2.161-4.122-2.389-1.128-.267-3.183.952-3.183 2.333 0 1.765 1.774-3.18 1.774-4.944 0-4.394-6.394-10.98-7.723-4.222-.546 2.782-1.212 6.306 1.357 8.333.801.632 6.048 3.282 2.922 1.222-.989-.651-18.04-11.038-14.923-3.778 2.3 5.358 7.518 8 12.732 8"/></svg>
